build/images/icon-data.svg

<svg width="20" height="20" viewBox="0 0 20 20" fill="none" xmlns="http://www.w3.org/2000/svg">
<path d="M10 0C4.48591 0 0 4.48591 0 10C0 15.5141 4.48591 20 10 20C15.5141 20 20 15.5141 20 10C20 4.48591 15.5141 0 10 0ZM10 17.8142C5.69113 17.8142 2.18579 14.3089 2.18579 10C2.18579 5.69135 5.69113 2.18579 10 2.18579C14.3089 2.18579 17.8142 5.69135 17.8142 10C17.8142 14.3089 14.3089 17.8142 10 17.8142Z" fill="#025BB1"/>
<path d="M10.8656 10.012V5.82078C10.8656 5.3528 10.4864 4.97357 10.0186 4.97357C9.55063 4.97357 9.17136 5.3528 9.17136 5.82078V10.2827C9.17136 10.296 9.17465 10.3085 9.17529 10.3218C9.16415 10.5522 9.24351 10.7861 9.41944 10.962L12.5747 14.117C12.9056 14.4479 13.442 14.4479 13.7727 14.117C14.1034 13.7861 14.1036 13.2497 13.7727 12.919L10.8656 10.012Z" fill="#025BB1"/>
</svg>

<svg width="20" height="20" fill="none" xmlns="http://www.w3.org/2000/svg"><path d="M10 0C4.486 0 0 4.486 0 10s4.486 10 10 10 10-4.486 10-10S15.514 0 10 0zm0 17.814c-4.309 0-7.814-3.505-7.814-7.814S5.69 2.186 10 2.186 17.814 5.69 17.814 10 14.31 17.814 10 17.814z" fill="#025BB1"/><path d="M10.866 10.012V5.821a.847.847 0 10-1.695 0v4.462c0 .013.004.026.004.039a.842.842 0 00.244.64l3.156 3.155a.847.847 0 101.198-1.198l-2.907-2.907z" fill="#025BB1"/></svg>
